X: 5578
T: Bush On The Hill, The
R: jig
M: 6/8
K: Gmajor
G,3 B,G,B,|GFG Bdg|edc BcA|BGE EDE|
G,3 B,G,B,|GFG Bdg|edc BcA|BGF G3:|
|:GBd g3|ece dBG|cBc BdB|ABA AFD|
GBd g3|ece dBG|cBc BdB|AGF G3:|

